X:1
T: Geordie Hinny
C:
R:Reel
Q: 232
K:D
M:4/4
L:1/8
|:FA2B d2 ef|ge fd e2 dB|Ad2A Bd AF|GB AF E2 EG|
FA2B d2 ef|ge fd e2 dB|AB dA Bd AF|GE AF D2 g2|
((3fga) df gb eg|fa2f ge cA|d2 D2 GB eg|((3fga) Ac d2 D2|
((3fga) df gb eg|fa2f ge cA|fd AF GB2g|((3fga) Ac d2 D2:|
